X:1348
T:Orsapolska
Z:[[http://www.bluerose.karenlmyers.org/IncipitsPolskaOrsa4.html|Karen Myers (#2163)]]
Z:Upptecknad 10/2000
M:3/4
L:1/8
R:Polska
O:Orsa, Dalarna
K:Gm
ddg2 f>(d | f)e/c/e2 d2 | G>(A B)c/B/ (A/B/)c/d/ | gfd2- dd |
ddg2 ^f>(d | ^f)=e/c/e2 (d2 | B)(A/B/) dc (A/B/)B/d/ |1 dTcA2- A(d :|2 d)cA2- A(A ||
|: B)A/B/d2 c>(A | B)^FA2 G>(D | F>)(G TB)A GB/d/ | dTcA2- A(A |
B)A/B/d2 c>(A | B)^FA2 G>(D | F>)(G TB)A G>B |1 A^FG2- GA :|2 A^FG4 |]
(:musicend:)

(:music:)
